public/luts/warm-film.cube
# color-grading-lut (ISSUE-41) — 절차 생성 warm-film LUT
# scripts/build-luts.mjs 로 재생성. 직접 편집하지 말 것.
LUT_3D_SIZE 16
DOMAIN_MIN 0.0 0.0 0.0
DOMAIN_MAX 1.0 1.0 1.0
0.0592 0.0592 0.0592
0.1229 0.0592 0.0592
0.1866 0.0592 0.0592
0.2503 0.0592 0.0592
0.3141 0.0592 0.0592
0.3778 0.0592 0.0592
0.4415 0.0592 0.0592
0.5052 0.0592 0.0592
0.5689 0.0592 0.0592
0.6326 0.0592 0.0592
0.6963 0.0592 0.0592
0.7600 0.0592 0.0592
0.8238 0.0592 0.0592
0.8875 0.0592 0.0592
0.9512 0.0592 0.0592
1.0000 0.0592 0.0592
0.0592 0.1199 0.0592
0.1229 0.1199 0.0592
0.1866 0.1199 0.0592
0.2503 0.1199 0.0592
0.3141 0.1199 0.0592
0.3778 0.1199 0.0592
0.4415 0.1199 0.0592
0.5052 0.1199 0.0592
0.5689 0.1199 0.0592
0.6326 0.1199 0.0592
0.6963 0.1199 0.0592
0.7600 0.1199 0.0592
0.8238 0.1199 0.0592
0.8875 0.1199 0.0592
0.9512 0.1199 0.0592
1.0000 0.1199 0.0592
0.0592 0.1806 0.0592
0.1229 0.1806 0.0592
0.1866 0.1806 0.0592
0.2503 0.1806 0.0592
0.3141 0.1806 0.0592
0.3778 0.1806 0.0592
0.4415 0.1806 0.0592
0.5052 0.1806 0.0592
0.5689 0.1806 0.0592
0.6326 0.1806 0.0592
0.6963 0.1806 0.0592
0.7600 0.1806 0.0592
0.8238 0.1806 0.0592
0.8875 0.1806 0.0592
0.9512 0.1806 0.0592
1.0000 0.1806 0.0592
0.0592 0.2413 0.0592
0.1229 0.2413 0.0592
0.1866 0.2413 0.0592
0.2503 0.2413 0.0592
0.3141 0.2413 0.0592
0.3778 0.2413 0.0592
0.4415 0.2413 0.0592
0.5052 0.2413 0.0592
0.5689 0.2413 0.0592
0.6326 0.2413 0.0592
0.6963 0.2413 0.0592
0.7600 0.2413 0.0592
0.8238 0.2413 0.0592
0.8875 0.2413 0.0592
0.9512 0.2413 0.0592
1.0000 0.2413 0.0592
0.0592 0.3020 0.0592
0.1229 0.3020 0.0592
0.1866 0.3020 0.0592
0.2503 0.3020 0.0592
0.3141 0.3020 0.0592
0.3778 0.3020 0.0592
0.4415 0.3020 0.0592
0.5052 0.3020 0.0592
0.5689 0.3020 0.0592
0.6326 0.3020 0.0592
0.6963 0.3020 0.0592
0.7600 0.3020 0.0592
0.8238 0.3020 0.0592
0.8875 0.3020 0.0592
0.9512 0.3020 0.0592
1.0000 0.3020 0.0592
0.0592 0.3627 0.0592
0.1229 0.3627 0.0592
0.1866 0.3627 0.0592
0.2503 0.3627 0.0592
0.3141 0.3627 0.0592
0.3778 0.3627 0.0592
0.4415 0.3627 0.0592
0.5052 0.3627 0.0592
0.5689 0.3627 0.0592
0.6326 0.3627 0.0592
0.6963 0.3627 0.0592
0.7600 0.3627 0.0592
0.8238 0.3627 0.0592
0.8875 0.3627 0.0592
0.9512 0.3627 0.0592
1.0000 0.3627 0.0592
0.0592 0.4234 0.0592
0.1229 0.4234 0.0592
0.1866 0.4234 0.0592
0.2503 0.4234 0.0592
0.3141 0.4234 0.0592
0.3778 0.4234 0.0592
0.4415 0.4234 0.0592
0.5052 0.4234 0.0592
0.5689 0.4234 0.0592
0.6326 0.4234 0.0592
0.6963 0.4234 0.0592
0.7600 0.4234 0.0592
0.8238 0.4234 0.0592
0.8875 0.4234 0.0592
0.9512 0.4234 0.0592
1.0000 0.4234 0.0592
0.0592 0.4842 0.0592
0.1229 0.4842 0.0592
0.1866 0.4842 0.0592
0.2503 0.4842 0.0592
0.3141 0.4842 0.0592
0.3778 0.4842 0.0592
0.4415 0.4842 0.0592
0.5052 0.4842 0.0592
0.5689 0.4842 0.0592
0.6326 0.4842 0.0592
0.6963 0.4842 0.0592
0.7600 0.4842 0.0592
0.8238 0.4842 0.0592
0.8875 0.4842 0.0592
0.9512 0.4842 0.0592
1.0000 0.4842 0.0592
0.0592 0.5449 0.0592
0.1229 0.5449 0.0592
0.1866 0.5449 0.0592
0.2503 0.5449 0.0592
0.3141 0.5449 0.0592
0.3778 0.5449 0.0592
0.4415 0.5449 0.0592
0.5052 0.5449 0.0592
0.5689 0.5449 0.0592
0.6326 0.5449 0.0592
0.6963 0.5449 0.0592
0.7600 0.5449 0.0592
0.8238 0.5449 0.0592
0.8875 0.5449 0.0592
0.9512 0.5449 0.0592
1.0000 0.5449 0.0592
0.0592 0.6056 0.0592
0.1229 0.6056 0.0592
0.1866 0.6056 0.0592
0.2503 0.6056 0.0592
0.3141 0.6056 0.0592
0.3778 0.6056 0.0592
0.4415 0.6056 0.0592
0.5052 0.6056 0.0592
0.5689 0.6056 0.0592
0.6326 0.6056 0.0592
0.6963 0.6056 0.0592
0.7600 0.6056 0.0592
0.8238 0.6056 0.0592
0.8875 0.6056 0.0592
0.9512 0.6056 0.0592
1.0000 0.6056 0.0592
0.0592 0.6663 0.0592
0.1229 0.6663 0.0592
0.1866 0.6663 0.0592
0.2503 0.6663 0.0592
0.3141 0.6663 0.0592
0.3778 0.6663 0.0592
0.4415 0.6663 0.0592
0.5052 0.6663 0.0592
0.5689 0.6663 0.0592
0.6326 0.6663 0.0592
0.6963 0.6663 0.0592
0.7600 0.6663 0.0592
0.8238 0.6663 0.0592
0.8875 0.6663 0.0592
0.9512 0.6663 0.0592
1.0000 0.6663 0.0592
0.0592 0.7270 0.0592
0.1229 0.7270 0.0592
0.1866 0.7270 0.0592
0.2503 0.7270 0.0592
0.3141 0.7270 0.0592
0.3778 0.7270 0.0592
0.4415 0.7270 0.0592
0.5052 0.7270 0.0592
0.5689 0.7270 0.0592
0.6326 0.7270 0.0592
0.6963 0.7270 0.0592
0.7600 0.7270 0.0592
0.8238 0.7270 0.0592
0.8875 0.7270 0.0592
0.9512 0.7270 0.0592
1.0000 0.7270 0.0592
0.0592 0.7877 0.0592
0.1229 0.7877 0.0592
0.1866 0.7877 0.0592
0.2503 0.7877 0.0592
0.3141 0.7877 0.0592
0.3778 0.7877 0.0592
0.4415 0.7877 0.0592
0.5052 0.7877 0.0592
0.5689 0.7877 0.0592
0.6326 0.7877 0.0592
0.6963 0.7877 0.0592
0.7600 0.7877 0.0592
0.8238 0.7877 0.0592
0.8875 0.7877 0.0592
0.9512 0.7877 0.0592
1.0000 0.7877 0.0592
0.0592 0.8484 0.0592
0.1229 0.8484 0.0592
0.1866 0.8484 0.0592
0.2503 0.8484 0.0592
0.3141 0.8484 0.0592
0.3778 0.8484 0.0592
0.4415 0.8484 0.0592
0.5052 0.8484 0.0592
0.5689 0.8484 0.0592
0.6326 0.8484 0.0592
0.6963 0.8484 0.0592
0.7600 0.8484 0.0592
0.8238 0.8484 0.0592
0.8875 0.8484 0.0592
0.9512 0.8484 0.0592
1.0000 0.8484 0.0592
0.0592 0.9091 0.0592
0.1229 0.9091 0.0592
0.1866 0.9091 0.0592
0.2503 0.9091 0.0592
0.3141 0.9091 0.0592
0.3778 0.9091 0.0592
0.4415 0.9091 0.0592
0.5052 0.9091 0.0592
0.5689 0.9091 0.0592
0.6326 0.9091 0.0592
0.6963 0.9091 0.0592
0.7600 0.9091 0.0592
0.8238 0.9091 0.0592
0.8875 0.9091 0.0592
0.9512 0.9091 0.0592
1.0000 0.9091 0.0592
0.0592 0.9698 0.0592
0.1229 0.9698 0.0592
0.1866 0.9698 0.0592
0.2503 0.9698 0.0592
0.3141 0.9698 0.0592
0.3778 0.9698 0.0592
0.4415 0.9698 0.0592
0.5052 0.9698 0.0592
0.5689 0.9698 0.0592
0.6326 0.9698 0.0592
0.6963 0.9698 0.0592
0.7600 0.9698 0.0592
0.8238 0.9698 0.0592
0.8875 0.9698 0.0592
0.9512 0.9698 0.0592
1.0000 0.9698 0.0592
0.0592 0.0592 0.1157
0.1229 0.0592 0.1157
0.1866 0.0592 0.1157
0.2503 0.0592 0.1157
0.3141 0.0592 0.1157
0.3778 0.0592 0.1157
0.4415 0.0592 0.1157
0.5052 0.0592 0.1157
0.5689 0.0592 0.1157
0.6326 0.0592 0.1157
0.6963 0.0592 0.1157
0.7600 0.0592 0.1157
0.8238 0.0592 0.1157
0.8875 0.0592 0.1157
0.9512 0.0592 0.1157
1.0000 0.0592 0.1157
0.0592 0.1199 0.1157
0.1229 0.1199 0.1157
0.1866 0.1199 0.1157
0.2503 0.1199 0.1157
0.3141 0.1199 0.1157
0.3778 0.1199 0.1157
0.4415 0.1199 0.1157
0.5052 0.1199 0.1157
0.5689 0.1199 0.1157
0.6326 0.1199 0.1157
0.6963 0.1199 0.1157
0.7600 0.1199 0.1157
0.8238 0.1199 0.1157
0.8875 0.1199 0.1157
0.9512 0.1199 0.1157
1.0000 0.1199 0.1157
0.0592 0.1806 0.1157
0.1229 0.1806 0.1157
0.1866 0.1806 0.1157
0.2503 0.1806 0.1157
0.3141 0.1806 0.1157
0.3778 0.1806 0.1157
0.4415 0.1806 0.1157
0.5052 0.1806 0.1157
0.5689 0.1806 0.1157
0.6326 0.1806 0.1157
0.6963 0.1806 0.1157
0.7600 0.1806 0.1157
0.8238 0.1806 0.1157
0.8875 0.1806 0.1157
0.9512 0.1806 0.1157
1.0000 0.1806 0.1157
0.0592 0.2413 0.1157
0.1229 0.2413 0.1157
0.1866 0.2413 0.1157
0.2503 0.2413 0.1157
0.3141 0.2413 0.1157
0.3778 0.2413 0.1157
0.4415 0.2413 0.1157
0.5052 0.2413 0.1157
0.5689 0.2413 0.1157
0.6326 0.2413 0.1157
0.6963 0.2413 0.1157
0.7600 0.2413 0.1157
0.8238 0.2413 0.1157
0.8875 0.2413 0.1157
0.9512 0.2413 0.1157
1.0000 0.2413 0.1157
0.0592 0.3020 0.1157
0.1229 0.3020 0.1157
0.1866 0.3020 0.1157
0.2503 0.3020 0.1157
0.3141 0.3020 0.1157
0.3778 0.3020 0.1157
0.4415 0.3020 0.1157
0.5052 0.3020 0.1157
0.5689 0.3020 0.1157
0.6326 0.3020 0.1157
0.6963 0.3020 0.1157
0.7600 0.3020 0.1157
0.8238 0.3020 0.1157
0.8875 0.3020 0.1157
0.9512 0.3020 0.1157
1.0000 0.3020 0.1157
0.0592 0.3627 0.1157
0.1229 0.3627 0.1157
0.1866 0.3627 0.1157
0.2503 0.3627 0.1157
0.3141 0.3627 0.1157
0.3778 0.3627 0.1157
0.4415 0.3627 0.1157
0.5052 0.3627 0.1157
0.5689 0.3627 0.1157
0.6326 0.3627 0.1157
0.6963 0.3627 0.1157
0.7600 0.3627 0.1157
0.8238 0.3627 0.1157
0.8875 0.3627 0.1157
0.9512 0.3627 0.1157
1.0000 0.3627 0.1157
0.0592 0.4234 0.1157
0.1229 0.4234 0.1157
0.1866 0.4234 0.1157
0.2503 0.4234 0.1157
0.3141 0.4234 0.1157
0.3778 0.4234 0.1157
0.4415 0.4234 0.1157
0.5052 0.4234 0.1157
0.5689 0.4234 0.1157
0.6326 0.4234 0.1157
0.6963 0.4234 0.1157
0.7600 0.4234 0.1157
0.8238 0.4234 0.1157
0.8875 0.4234 0.1157
0.9512 0.4234 0.1157
1.0000 0.4234 0.1157
0.0592 0.4842 0.1157
0.1229 0.4842 0.1157
0.1866 0.4842 0.1157
0.2503 0.4842 0.1157
0.3141 0.4842 0.1157
0.3778 0.4842 0.1157
0.4415 0.4842 0.1157
0.5052 0.4842 0.1157
0.5689 0.4842 0.1157
0.6326 0.4842 0.1157
0.6963 0.4842 0.1157
0.7600 0.4842 0.1157
0.8238 0.4842 0.1157
0.8875 0.4842 0.1157
0.9512 0.4842 0.1157
1.0000 0.4842 0.1157
0.0592 0.5449 0.1157
0.1229 0.5449 0.1157
0.1866 0.5449 0.1157
0.2503 0.5449 0.1157
0.3141 0.5449 0.1157
0.3778 0.5449 0.1157
0.4415 0.5449 0.1157
0.5052 0.5449 0.1157
0.5689 0.5449 0.1157
0.6326 0.5449 0.1157
0.6963 0.5449 0.1157
0.7600 0.5449 0.1157
0.8238 0.5449 0.1157
0.8875 0.5449 0.1157
0.9512 0.5449 0.1157
1.0000 0.5449 0.1157
0.0592 0.6056 0.1157
0.1229 0.6056 0.1157
0.1866 0.6056 0.1157
0.2503 0.6056 0.1157
0.3141 0.6056 0.1157
0.3778 0.6056 0.1157
0.4415 0.6056 0.1157
0.5052 0.6056 0.1157
0.5689 0.6056 0.1157
0.6326 0.6056 0.1157
0.6963 0.6056 0.1157
0.7600 0.6056 0.1157
0.8238 0.6056 0.1157
0.8875 0.6056 0.1157
0.9512 0.6056 0.1157
1.0000 0.6056 0.1157
0.0592 0.6663 0.1157
0.1229 0.6663 0.1157
0.1866 0.6663 0.1157
0.2503 0.6663 0.1157
0.3141 0.6663 0.1157
0.3778 0.6663 0.1157
0.4415 0.6663 0.1157
0.5052 0.6663 0.1157
0.5689 0.6663 0.1157
0.6326 0.6663 0.1157
0.6963 0.6663 0.1157
0.7600 0.6663 0.1157
0.8238 0.6663 0.1157
0.8875 0.6663 0.1157
0.9512 0.6663 0.1157
1.0000 0.6663 0.1157
0.0592 0.7270 0.1157
0.1229 0.7270 0.1157
0.1866 0.7270 0.1157
0.2503 0.7270 0.1157
0.3141 0.7270 0.1157
0.3778 0.7270 0.1157
0.4415 0.7270 0.1157
0.5052 0.7270 0.1157
0.5689 0.7270 0.1157
0.6326 0.7270 0.1157
0.6963 0.7270 0.1157
0.7600 0.7270 0.1157
0.8238 0.7270 0.1157
0.8875 0.7270 0.1157
0.9512 0.7270 0.1157
1.0000 0.7270 0.1157
0.0592 0.7877 0.1157
0.1229 0.7877 0.1157
0.1866 0.7877 0.1157
0.2503 0.7877 0.1157
0.3141 0.7877 0.1157
0.3778 0.7877 0.1157
0.4415 0.7877 0.1157
0.5052 0.7877 0.1157
0.5689 0.7877 0.1157
0.6326 0.7877 0.1157
0.6963 0.7877 0.1157
0.7600 0.7877 0.1157
0.8238 0.7877 0.1157
0.8875 0.7877 0.1157
0.9512 0.7877 0.1157
1.0000 0.7877 0.1157
0.0592 0.8484 0.1157
0.1229 0.8484 0.1157
0.1866 0.8484 0.1157
0.2503 0.8484 0.1157
0.3141 0.8484 0.1157
0.3778 0.8484 0.1157
0.4415 0.8484 0.1157
0.5052 0.8484 0.1157
0.5689 0.8484 0.1157
0.6326 0.8484 0.1157
0.6963 0.8484 0.1157
0.7600 0.8484 0.1157
0.8238 0.8484 0.1157
0.8875 0.8484 0.1157
0.9512 0.8484 0.1157
1.0000 0.8484 0.1157
0.0592 0.9091 0.1157
0.1229 0.9091 0.1157
0.1866 0.9091 0.1157
0.2503 0.9091 0.1157
0.3141 0.9091 0.1157
0.3778 0.9091 0.1157
0.4415 0.9091 0.1157
0.5052 0.9091 0.1157
0.5689 0.9091 0.1157
0.6326 0.9091 0.1157
0.6963 0.9091 0.1157
0.7600 0.9091 0.1157
0.8238 0.9091 0.1157
0.8875 0.9091 0.1157
0.9512 0.9091 0.1157
1.0000 0.9091 0.1157
0.0592 0.9698 0.1157
0.1229 0.9698 0.1157
0.1866 0.9698 0.1157
0.2503 0.9698 0.1157
0.3141 0.9698 0.1157
0.3778 0.9698 0.1157
0.4415 0.9698 0.1157
0.5052 0.9698 0.1157
0.5689 0.9698 0.1157
0.6326 0.9698 0.1157
0.6963 0.9698 0.1157
0.7600 0.9698 0.1157
0.8238 0.9698 0.1157
0.8875 0.9698 0.1157
0.9512 0.9698 0.1157
1.0000 0.9698 0.1157
0.0592 0.0592 0.1722
0.1229 0.0592 0.1722
0.1866 0.0592 0.1722
0.2503 0.0592 0.1722
0.3141 0.0592 0.1722
0.3778 0.0592 0.1722
0.4415 0.0592 0.1722
0.5052 0.0592 0.1722
0.5689 0.0592 0.1722
0.6326 0.0592 0.1722
0.6963 0.0592 0.1722
0.7600 0.0592 0.1722
0.8238 0.0592 0.1722
0.8875 0.0592 0.1722
0.9512 0.0592 0.1722
1.0000 0.0592 0.1722
0.0592 0.1199 0.1722
0.1229 0.1199 0.1722
0.1866 0.1199 0.1722
0.2503 0.1199 0.1722
0.3141 0.1199 0.1722
0.3778 0.1199 0.1722
0.4415 0.1199 0.1722
0.5052 0.1199 0.1722
0.5689 0.1199 0.1722
0.6326 0.1199 0.1722
0.6963 0.1199 0.1722
0.7600 0.1199 0.1722
0.8238 0.1199 0.1722
0.8875 0.1199 0.1722
0.9512 0.1199 0.1722
1.0000 0.1199 0.1722
0.0592 0.1806 0.1722
0.1229 0.1806 0.1722
0.1866 0.1806 0.1722
0.2503 0.1806 0.1722
0.3141 0.1806 0.1722
0.3778 0.1806 0.1722
0.4415 0.1806 0.1722
0.5052 0.1806 0.1722
0.5689 0.1806 0.1722
0.6326 0.1806 0.1722
0.6963 0.1806 0.1722
0.7600 0.1806 0.1722
0.8238 0.1806 0.1722
0.8875 0.1806 0.1722
0.9512 0.1806 0.1722
1.0000 0.1806 0.1722
0.0592 0.2413 0.1722
0.1229 0.2413 0.1722
0.1866 0.2413 0.1722
0.2503 0.2413 0.1722
0.3141 0.2413 0.1722
0.3778 0.2413 0.1722
0.4415 0.2413 0.1722
0.5052 0.2413 0.1722
0.5689 0.2413 0.1722
0.6326 0.2413 0.1722
0.6963 0.2413 0.1722
0.7600 0.2413 0.1722
0.8238 0.2413 0.1722
0.8875 0.2413 0.1722
0.9512 0.2413 0.1722
1.0000 0.2413 0.1722
0.0592 0.3020 0.1722
0.1229 0.3020 0.1722
0.1866 0.3020 0.1722
0.2503 0.3020 0.1722
0.3141 0.3020 0.1722
0.3778 0.3020 0.1722
0.4415 0.3020 0.1722
0.5052 0.3020 0.1722
0.5689 0.3020 0.1722
0.6326 0.3020 0.1722
0.6963 0.3020 0.1722
0.7600 0.3020 0.1722
0.8238 0.3020 0.1722
0.8875 0.3020 0.1722
0.9512 0.3020 0.1722
1.0000 0.3020 0.1722
0.0592 0.3627 0.1722
0.1229 0.3627 0.1722
0.1866 0.3627 0.1722
0.2503 0.3627 0.1722
0.3141 0.3627 0.1722
0.3778 0.3627 0.1722
0.4415 0.3627 0.1722
0.5052 0.3627 0.1722
0.5689 0.3627 0.1722
0.6326 0.3627 0.1722
0.6963 0.3627 0.1722
0.7600 0.3627 0.1722
0.8238 0.3627 0.1722
0.8875 0.3627 0.1722
0.9512 0.3627 0.1722
1.0000 0.3627 0.1722
0.0592 0.4234 0.1722
0.1229 0.4234 0.1722
0.1866 0.4234 0.1722
0.2503 0.4234 0.1722
0.3141 0.4234 0.1722
0.3778 0.4234 0.1722
0.4415 0.4234 0.1722
0.5052 0.4234 0.1722
0.5689 0.4234 0.1722
0.6326 0.4234 0.1722
0.6963 0.4234 0.1722
0.7600 0.4234 0.1722
0.8238 0.4234 0.1722
0.8875 0.4234 0.1722
0.9512 0.4234 0.1722
1.0000 0.4234 0.1722
0.0592 0.4842 0.1722
0.1229 0.4842 0.1722
0.1866 0.4842 0.1722
0.2503 0.4842 0.1722
0.3141 0.4842 0.1722
0.3778 0.4842 0.1722
0.4415 0.4842 0.1722
0.5052 0.4842 0.1722
0.5689 0.4842 0.1722
0.6326 0.4842 0.1722
0.6963 0.4842 0.1722
0.7600 0.4842 0.1722
0.8238 0.4842 0.1722
0.8875 0.4842 0.1722
0.9512 0.4842 0.1722
1.0000 0.4842 0.1722
0.0592 0.5449 0.1722
0.1229 0.5449 0.1722
0.1866 0.5449 0.1722
0.2503 0.5449 0.1722
0.3141 0.5449 0.1722
0.3778 0.5449 0.1722
0.4415 0.5449 0.1722
0.5052 0.5449 0.1722
0.5689 0.5449 0.1722
0.6326 0.5449 0.1722
0.6963 0.5449 0.1722
0.7600 0.5449 0.1722
0.8238 0.5449 0.1722
0.8875 0.5449 0.1722
0.9512 0.5449 0.1722
1.0000 0.5449 0.1722
0.0592 0.6056 0.1722
0.1229 0.6056 0.1722
0.1866 0.6056 0.1722
0.2503 0.6056 0.1722
0.3141 0.6056 0.1722
0.3778 0.6056 0.1722
0.4415 0.6056 0.1722
0.5052 0.6056 0.1722
0.5689 0.6056 0.1722
0.6326 0.6056 0.1722
0.6963 0.6056 0.1722
0.7600 0.6056 0.1722
0.8238 0.6056 0.1722
0.8875 0.6056 0.1722
0.9512 0.6056 0.1722
1.0000 0.6056 0.1722
0.0592 0.6663 0.1722
0.1229 0.6663 0.1722
0.1866 0.6663 0.1722
0.2503 0.6663 0.1722
0.3141 0.6663 0.1722
0.3778 0.6663 0.1722
0.4415 0.6663 0.1722
0.5052 0.6663 0.1722
0.5689 0.6663 0.1722
0.6326 0.6663 0.1722
0.6963 0.6663 0.1722
0.7600 0.6663 0.1722
0.8238 0.6663 0.1722
0.8875 0.6663 0.1722
0.9512 0.6663 0.1722
1.0000 0.6663 0.1722
0.0592 0.7270 0.1722
0.1229 0.7270 0.1722
0.1866 0.7270 0.1722
0.2503 0.7270 0.1722
0.3141 0.7270 0.1722
0.3778 0.7270 0.1722
0.4415 0.7270 0.1722
0.5052 0.7270 0.1722
0.5689 0.7270 0.1722
0.6326 0.7270 0.1722
0.6963 0.7270 0.1722
0.7600 0.7270 0.1722
0.8238 0.7270 0.1722
0.8875 0.7270 0.1722
0.9512 0.7270 0.1722
1.0000 0.7270 0.1722
0.0592 0.7877 0.1722
0.1229 0.7877 0.1722
0.1866 0.7877 0.1722
0.2503 0.7877 0.1722
0.3141 0.7877 0.1722
0.3778 0.7877 0.1722
0.4415 0.7877 0.1722
0.5052 0.7877 0.1722
0.5689 0.7877 0.1722
0.6326 0.7877 0.1722
0.6963 0.7877 0.1722
0.7600 0.7877 0.1722
0.8238 0.7877 0.1722
0.8875 0.7877 0.1722
0.9512 0.7877 0.1722
1.0000 0.7877 0.1722
0.0592 0.8484 0.1722
0.1229 0.8484 0.1722
0.1866 0.8484 0.1722
0.2503 0.8484 0.1722
0.3141 0.8484 0.1722
0.3778 0.8484 0.1722
0.4415 0.8484 0.1722
0.5052 0.8484 0.1722
0.5689 0.8484 0.1722
0.6326 0.8484 0.1722
0.6963 0.8484 0.1722
0.7600 0.8484 0.1722
0.8238 0.8484 0.1722
0.8875 0.8484 0.1722
0.9512 0.8484 0.1722
1.0000 0.8484 0.1722
0.0592 0.9091 0.1722
0.1229 0.9091 0.1722
0.1866 0.9091 0.1722
0.2503 0.9091 0.1722
0.3141 0.9091 0.1722
0.3778 0.9091 0.1722
0.4415 0.9091 0.1722
0.5052 0.9091 0.1722
0.5689 0.9091 0.1722
0.6326 0.9091 0.1722
0.6963 0.9091 0.1722
0.7600 0.9091 0.1722
0.8238 0.9091 0.1722
0.8875 0.9091 0.1722
0.9512 0.9091 0.1722
1.0000 0.9091 0.1722
0.0592 0.9698 0.1722
0.1229 0.9698 0.1722
0.1866 0.9698 0.1722
0.2503 0.9698 0.1722
0.3141 0.9698 0.1722
0.3778 0.9698 0.1722
0.4415 0.9698 0.1722
0.5052 0.9698 0.1722
0.5689 0.9698 0.1722
0.6326 0.9698 0.1722
0.6963 0.9698 0.1722
0.7600 0.9698 0.1722
0.8238 0.9698 0.1722
0.8875 0.9698 0.1722
0.9512 0.9698 0.1722
1.0000 0.9698 0.1722
0.0592 0.0592 0.2287
0.1229 0.0592 0.2287
0.1866 0.0592 0.2287
0.2503 0.0592 0.2287
0.3141 0.0592 0.2287
0.3778 0.0592 0.2287
0.4415 0.0592 0.2287
0.5052 0.0592 0.2287
0.5689 0.0592 0.2287
0.6326 0.0592 0.2287
0.6963 0.0592 0.2287
0.7600 0.0592 0.2287
0.8238 0.0592 0.2287
0.8875 0.0592 0.2287
0.9512 0.0592 0.2287
1.0000 0.0592 0.2287
0.0592 0.1199 0.2287
0.1229 0.1199 0.2287
0.1866 0.1199 0.2287
0.2503 0.1199 0.2287
0.3141 0.1199 0.2287
0.3778 0.1199 0.2287
0.4415 0.1199 0.2287
0.5052 0.1199 0.2287
0.5689 0.1199 0.2287
0.6326 0.1199 0.2287
0.6963 0.1199 0.2287
0.7600 0.1199 0.2287
0.8238 0.1199 0.2287
0.8875 0.1199 0.2287
0.9512 0.1199 0.2287
1.0000 0.1199 0.2287
0.0592 0.1806 0.2287
0.1229 0.1806 0.2287
0.1866 0.1806 0.2287
0.2503 0.1806 0.2287
0.3141 0.1806 0.2287
0.3778 0.1806 0.2287
0.4415 0.1806 0.2287
0.5052 0.1806 0.2287
0.5689 0.1806 0.2287
0.6326 0.1806 0.2287
0.6963 0.1806 0.2287
0.7600 0.1806 0.2287
0.8238 0.1806 0.2287
0.8875 0.1806 0.2287
0.9512 0.1806 0.2287
1.0000 0.1806 0.2287
0.0592 0.2413 0.2287
0.1229 0.2413 0.2287
0.1866 0.2413 0.2287
0.2503 0.2413 0.2287
0.3141 0.2413 0.2287
0.3778 0.2413 0.2287
0.4415 0.2413 0.2287
0.5052 0.2413 0.2287
0.5689 0.2413 0.2287
0.6326 0.2413 0.2287
0.6963 0.2413 0.2287
0.7600 0.2413 0.2287
0.8238 0.2413 0.2287
0.8875 0.2413 0.2287
0.9512 0.2413 0.2287
1.0000 0.2413 0.2287
0.0592 0.3020 0.2287
0.1229 0.3020 0.2287
0.1866 0.3020 0.2287
0.2503 0.3020 0.2287
0.3141 0.3020 0.2287
0.3778 0.3020 0.2287
0.4415 0.3020 0.2287
0.5052 0.3020 0.2287
0.5689 0.3020 0.2287
0.6326 0.3020 0.2287
0.6963 0.3020 0.2287
0.7600 0.3020 0.2287
0.8238 0.3020 0.2287
0.8875 0.3020 0.2287
0.9512 0.3020 0.2287
1.0000 0.3020 0.2287
0.0592 0.3627 0.2287
0.1229 0.3627 0.2287
0.1866 0.3627 0.2287
0.2503 0.3627 0.2287
0.3141 0.3627 0.2287
0.3778 0.3627 0.2287
0.4415 0.3627 0.2287
0.5052 0.3627 0.2287
0.5689 0.3627 0.2287
0.6326 0.3627 0.2287
0.6963 0.3627 0.2287
0.7600 0.3627 0.2287
0.8238 0.3627 0.2287
0.8875 0.3627 0.2287
0.9512 0.3627 0.2287
1.0000 0.3627 0.2287
0.0592 0.4234 0.2287
0.1229 0.4234 0.2287
0.1866 0.4234 0.2287
0.2503 0.4234 0.2287
0.3141 0.4234 0.2287
0.3778 0.4234 0.2287
0.4415 0.4234 0.2287
0.5052 0.4234 0.2287
0.5689 0.4234 0.2287
0.6326 0.4234 0.2287
0.6963 0.4234 0.2287
0.7600 0.4234 0.2287
0.8238 0.4234 0.2287
0.8875 0.4234 0.2287
0.9512 0.4234 0.2287
1.0000 0.4234 0.2287
0.0592 0.4842 0.2287
0.1229 0.4842 0.2287
0.1866 0.4842 0.2287
0.2503 0.4842 0.2287
0.3141 0.4842 0.2287
0.3778 0.4842 0.2287
0.4415 0.4842 0.2287
0.5052 0.4842 0.2287
0.5689 0.4842 0.2287
0.6326 0.4842 0.2287
0.6963 0.4842 0.2287
0.7600 0.4842 0.2287
0.8238 0.4842 0.2287
0.8875 0.4842 0.2287
0.9512 0.4842 0.2287
1.0000 0.4842 0.2287
0.0592 0.5449 0.2287
0.1229 0.5449 0.2287
0.1866 0.5449 0.2287
0.2503 0.5449 0.2287
