public/luts/warm-film.cube
# color-grading-lut (ISSUE-41) — 절차 생성 warm-film LUT
# scripts/build-luts.mjs 로 재생성. 직접 편집하지 말 것.
LUT_3D_SIZE 6
DOMAIN_MIN 0.0 0.0 0.0
DOMAIN_MAX 1.0 1.0 1.0
0.0592 0.0592 0.0592
0.2503 0.0592 0.0592
0.4415 0.0592 0.0592
0.6326 0.0592 0.0592
0.8238 0.0592 0.0592
1.0000 0.0592 0.0592
0.0592 0.2413 0.0592
0.2503 0.2413 0.0592
0.4415 0.2413 0.0592
0.6326 0.2413 0.0592
0.8238 0.2413 0.0592
1.0000 0.2413 0.0592
0.0592 0.4234 0.0592
0.2503 0.4234 0.0592
0.4415 0.4234 0.0592
0.6326 0.4234 0.0592
0.8238 0.4234 0.0592
1.0000 0.4234 0.0592
0.0592 0.6056 0.0592
0.2503 0.6056 0.0592
0.4415 0.6056 0.0592
0.6326 0.6056 0.0592
0.8238 0.6056 0.0592
1.0000 0.6056 0.0592
0.0592 0.7877 0.0592
0.2503 0.7877 0.0592
0.4415 0.7877 0.0592
0.6326 0.7877 0.0592
0.8238 0.7877 0.0592
1.0000 0.7877 0.0592
0.0592 0.9698 0.0592
0.2503 0.9698 0.0592
0.4415 0.9698 0.0592
0.6326 0.9698 0.0592
0.8238 0.9698 0.0592
1.0000 0.9698 0.0592
0.0592 0.0592 0.2287
0.2503 0.0592 0.2287
0.4415 0.0592 0.2287
0.6326 0.0592 0.2287
0.8238 0.0592 0.2287
1.0000 0.0592 0.2287
0.0592 0.2413 0.2287
0.2503 0.2413 0.2287
0.4415 0.2413 0.2287
0.6326 0.2413 0.2287
0.8238 0.2413 0.2287
1.0000 0.2413 0.2287
0.0592 0.4234 0.2287
0.2503 0.4234 0.2287
0.4415 0.4234 0.2287
0.6326 0.4234 0.2287
0.8238 0.4234 0.2287
1.0000 0.4234 0.2287
0.0592 0.6056 0.2287
0.2503 0.6056 0.2287
0.4415 0.6056 0.2287
0.6326 0.6056 0.2287
0.8238 0.6056 0.2287
1.0000 0.6056 0.2287
0.0592 0.7877 0.2287
0.2503 0.7877 0.2287
0.4415 0.7877 0.2287
0.6326 0.7877 0.2287
0.8238 0.7877 0.2287
1.0000 0.7877 0.2287
0.0592 0.9698 0.2287
0.2503 0.9698 0.2287
0.4415 0.9698 0.2287
0.6326 0.9698 0.2287
0.8238 0.9698 0.2287
1.0000 0.9698 0.2287
0.0592 0.0592 0.3982
0.2503 0.0592 0.3982
0.4415 0.0592 0.3982
0.6326 0.0592 0.3982
0.8238 0.0592 0.3982
1.0000 0.0592 0.3982
0.0592 0.2413 0.3982
0.2503 0.2413 0.3982
0.4415 0.2413 0.3982
0.6326 0.2413 0.3982
0.8238 0.2413 0.3982
1.0000 0.2413 0.3982
0.0592 0.4234 0.3982
0.2503 0.4234 0.3982
0.4415 0.4234 0.3982
0.6326 0.4234 0.3982
0.8238 0.4234 0.3982
1.0000 0.4234 0.3982
0.0592 0.6056 0.3982
0.2503 0.6056 0.3982
0.4415 0.6056 0.3982
0.6326 0.6056 0.3982
0.8238 0.6056 0.3982
1.0000 0.6056 0.3982
0.0592 0.7877 0.3982
0.2503 0.7877 0.3982
0.4415 0.7877 0.3982
0.6326 0.7877 0.3982
0.8238 0.7877 0.3982
1.0000 0.7877 0.3982
0.0592 0.9698 0.3982
0.2503 0.9698 0.3982
0.4415 0.9698 0.3982
0.6326 0.9698 0.3982
0.8238 0.9698 0.3982
1.0000 0.9698 0.3982
0.0592 0.0592 0.5677
0.2503 0.0592 0.5677
0.4415 0.0592 0.5677
0.6326 0.0592 0.5677
0.8238 0.0592 0.5677
1.0000 0.0592 0.5677
0.0592 0.2413 0.5677
0.2503 0.2413 0.5677
0.4415 0.2413 0.5677
0.6326 0.2413 0.5677
0.8238 0.2413 0.5677
1.0000 0.2413 0.5677
0.0592 0.4234 0.5677
0.2503 0.4234 0.5677
0.4415 0.4234 0.5677
0.6326 0.4234 0.5677
0.8238 0.4234 0.5677
1.0000 0.4234 0.5677
0.0592 0.6056 0.5677
0.2503 0.6056 0.5677
0.4415 0.6056 0.5677
0.6326 0.6056 0.5677
0.8238 0.6056 0.5677
1.0000 0.6056 0.5677
0.0592 0.7877 0.5677
0.2503 0.7877 0.5677
0.4415 0.7877 0.5677
0.6326 0.7877 0.5677
0.8238 0.7877 0.5677
1.0000 0.7877 0.5677
0.0592 0.9698 0.5677
0.2503 0.9698 0.5677
0.4415 0.9698 0.5677
0.6326 0.9698 0.5677
0.8238 0.9698 0.5677
1.0000 0.9698 0.5677
0.0592 0.0592 0.7372
0.2503 0.0592 0.7372
0.4415 0.0592 0.7372
0.6326 0.0592 0.7372
0.8238 0.0592 0.7372
1.0000 0.0592 0.7372
0.0592 0.2413 0.7372
0.2503 0.2413 0.7372
0.4415 0.2413 0.7372
0.6326 0.2413 0.7372
0.8238 0.2413 0.7372
1.0000 0.2413 0.7372
0.0592 0.4234 0.7372
0.2503 0.4234 0.7372
0.4415 0.4234 0.7372
0.6326 0.4234 0.7372
0.8238 0.4234 0.7372
1.0000 0.4234 0.7372
0.0592 0.6056 0.7372
0.2503 0.6056 0.7372
0.4415 0.6056 0.7372
0.6326 0.6056 0.7372
0.8238 0.6056 0.7372
1.0000 0.6056 0.7372
0.0592 0.7877 0.7372
0.2503 0.7877 0.7372
0.4415 0.7877 0.7372
0.6326 0.7877 0.7372
0.8238 0.7877 0.7372
1.0000 0.7877 0.7372
0.0592 0.9698 0.7372
0.2503 0.9698 0.7372
0.4415 0.9698 0.7372
0.6326 0.9698 0.7372
0.8238 0.9698 0.7372
1.0000 0.9698 0.7372
0.0592 0.0592 0.9067
0.2503 0.0592 0.9067
0.4415 0.0592 0.9067
0.6326 0.0592 0.9067
0.8238 0.0592 0.9067
1.0000 0.0592 0.9067
0.0592 0.2413 0.9067
0.2503 0.2413 0.9067
0.4415 0.2413 0.9067
0.6326 0.2413 0.9067
0.8238 0.2413 0.9067
1.0000 0.2413 0.9067
0.0592 0.4234 0.9067
0.2503 0.4234 0.9067
0.4415 0.4234 0.9067
0.6326 0.4234 0.9067
0.8238 0.4234 0.9067
1.0000 0.4234 0.9067
0.0592 0.6056 0.9067
0.2503 0.6056 0.9067
0.4415 0.6056 0.9067
0.6326 0.6056 0.9067
0.8238 0.6056 0.9067
1.0000 0.6056 0.9067
0.0592 0.7877 0.9067
0.2503 0.7877 0.9067
0.4415 0.7877 0.9067
0.6326 0.7877 0.9067
0.8238 0.7877 0.9067
1.0000 0.7877 0.9067
0.0592 0.9698 0.9067
0.2503 0.9698 0.9067
0.4415 0.9698 0.9067
0.6326 0.9698 0.9067
0.8238 0.9698 0.9067
1.0000 0.9698 0.9067
